!!!COM: Stravinsky, Igor (Fyodorovich)
!!!OTL: Vesna svyashchennaya (The Rite of Spring), Scenes of Pagan Russia for Orchestra
!!!OMV: The Sacrifice: Sacrificial Dance
!!!example: 365
!!!work: Str-7
**kern	**dynam	**kern	**kern	**kern	**kern	**kern	**kern	**kern	**kern	**kern	**kern	**kern	**kern	**kern	**dynam	**kern	**dynam	**kern	**dynam	**kern	**dynam	**kern	**dynam	**kern	**dynam	**kern	**kern	**kern	**kern	**kern	**kern	**kern	**kern	**kern	**kern
*part29	*part29	*part28	*part27	*part26	*part25	*part24	*part23	*part22	*part21	*part20	*part19	*part18	*part17	*part16	*part16	*part15	*part15	*part14	*part14	*part13	*part13	*part12	*part12	*part11	*part11	*part10	*part9	*part8	*part7	*part6	*part5	*part4	*part3	*part2	*part1
*staff29	*	*staff28	*staff27	*staff26	*staff25	*staff24	*staff23	*staff22	*staff21	*staff20	*staff19	*staff18	*staff17	*staff16	*	*staff15	*	*staff14	*	*staff13	*	*staff12	*	*staff11	*	*staff10	*staff9	*staff8	*staff7	*staff6	*staff5	*staff4	*staff3	*staff2	*staff1
*I"Contrabass	*	*I"Violoncello	*I"Viola	*I"Violin II	*I"Violin I	*I"Bass Drum	*I"Timpani	*I"Tuba	*I"Trombone	*I"Bass Trumpet in Eb	*I"Trumpet in C	*I"Trumpet in C	*I"Trumpet in D	*I"Horn in F	*	*I"Horn in F	*	*I"Horn in F	*	*I"Horn in F	*	*I"Contrabassoon	*	*I"Bassoon	*	*I"Bass Clarinet in Bb	*I"Clarinet in Bb	*I"Clarinet in Bb	*I"Clarinet in Eb	*I"Cor Anglais	*I"Oboe	*I"Oboe	*I"G Flute	*I"Flute	*I"Piccolo
*I'Cb.	*	*I'Vc.	*I'Vla.	*I'Vln. II	*I'Vln. I	*I'B. D.	*I'Timp.	*I'Tba.	*I'Tbn.	*I'Bass Tpt.	*I'C Tpt.	*I'C Tpt.	*I'D Tpt.	*I'Hn.	*	*I'Hn.	*	*I'Hn.	*	*I'Hn.	*	*I'Cbsn.	*	*I'Bsn.	*	*I'B. Cl.	*I'Cl.	*I'Cl.	*I'Eb Cl.	*I'C. A.	*I'Ob.	*I'Ob.	*I'G Fl.	*I'Fl.	*I'Picc.
*clefF4	*	*clefF4	*clefC3	*clefG2	*clefG2	*clefpercussion0	*clefF4	*clefF4	*clefF4	*clefG2	*clefG2	*clefG2	*clefG2	*clefG2	*	*clefG2	*	*clefG2	*	*clefG2	*	*clefF4	*	*clefF4	*	*clefG2	*clefG2	*clefG2	*clefG2	*clefG2	*clefG2	*clefG2	*clefG2	*clefG2	*clefG2
*k[]	*	*k[]	*k[]	*k[]	*k[]	*	*	*k[]	*k[]	*k[]	*k[]	*k[]	*k[]	*	*	*	*	*	*	*	*	*k[]	*	*k[]	*	*k[]	*k[]	*k[]	*k[]	*k[]	*k[]	*k[]	*k[]	*k[]	*k[]
*	*	*	*	*	*	*	*	*	*	*	*	*	*	*	*	*	*	*	*	*	*	*	*	*	*	*	*	*	*	*	*	*	*	*	*
*M3/16	*	*M3/16	*M3/16	*M3/16	*M3/16	*M3/16	*M3/16	*M3/16	*M3/16	*M3/16	*M3/16	*M3/16	*M3/16	*M3/16	*	*M3/16	*	*M3/16	*	*M3/16	*	*M3/16	*	*M3/16	*	*M3/16	*M3/16	*M3/16	*M3/16	*M3/16	*M3/16	*M3/16	*M3/16	*M3/16	*M3/16
=255	=	=	=	=	=	=	=	=	=	=	=	=	=	=	=	=	=	=	=	=	=	=	=	=	=	=	=	=	=	=	=	=	=	=	=
16r	.	16d	16ee	16dd-X 16bb-X 16eee	16dd-X 16bb-X 16eee	16r	16r	16AA 16G	16C#X 16E 16An	16e	16f	16b-X 16dd-X	16ee	8r	.	8r	.	8r	.	8r	.	16r	.	16r	.	8.r	16b-X	16dd-X 16ff	16bb-X	16dd-X	16ff 16ddd-X	16bb-X 16ddd-X	16eee	16eee	8r
16AAA^	.	16r	16r	16r	16r	16x	8AA	16r	16r	16r	16r	16r	16r	.	.	.	.	.	.	.	.	16AAA'	.	16AA'	.	.	16r	16r	16r	16r	16r	16r	16r	16r	.
.	.	.	.	.	.	.	.	.	.	.	.	.	.	.	.	.	.	.	.	.	.	.	.	.	.	.	.	.	.	.	.	.	.	.	(16qdddd-X/LL
.	.	.	.	.	.	.	.	.	.	.	.	.	.	.	.	.	.	.	.	.	.	.	.	.	.	.	.	.	.	.	.	.	.	.	16qeeee-X/
.	.	.	.	.	.	.	.	.	.	.	.	.	.	.	.	.	.	.	.	.	.	.	.	.	.	.	.	.	.	.	.	.	.	.	16qeeeen/JJ
16r	.	16b-X	16ff	16bb-X 16ccc 16fff	16bb-X 16ccc 16fff	16r	.	16GG 16D-X	16BB-X 16E-X 16G	16c	16b-X	16dd-X 16ff	16cc	16B-X	???	16d-X	???	16f	???	16B-X 16f	???	16r	.	16r	.	.	16dd-X	16ff 16bb-X	16ddd-X	16ff	16bb-X 16fff	16ddd- 16fff	16ccc	16ccc	16cccc) 16ffff
=256	=256	=256	=256	=256	=256	=256	=256	=256	=256	=256	=256	=256	=256	=256	=256	=256	=256	=256	=256	=256	=256	=256	=256	=256	=256	=256	=256	=256	=256	=256	=256	=256	=256	=256	=256
*M2/16	*	*M2/16	*M2/16	*M2/16	*M2/16	*M2/16	*M2/16	*M2/16	*M2/16	*M2/16	*M2/16	*M2/16	*M2/16	*M2/16	*	*M2/16	*	*M2/16	*	*M2/16	*	*M2/16	*	*M2/16	*	*M2/16	*M2/16	*M2/16	*M2/16	*M2/16	*M2/16	*M2/16	*M2/16	*M2/16	*M2/16
16CC^	.	16r	16r	16r	16r	16x	16C	8r	8r	8r	8r	8r	8r	16r	.	16r	.	16r	.	8r	.	16CC'	.	16C'LL	.	8r	16r	16r	8r	8r	8r	8r	16r	8r	8r
*	*	*	*	*	*	*	*	*	*	*	*	*	*	*clefF4	*	*clefF4	*	*	*	*	*	*	*	*	*	*	*	*	*	*	*	*	*	*	*
16r	.	16FF#X 16C#X 16A#X	16f 16b-X	16e 16cc#X 16ee	16e 16cc#X 16ee	16r	16r	.	.	.	.	.	.	16BBB-X	.	16DD-X	.	16G-X	.	.	.	16r	.	16FF#XJJ 16E	.	.	16f	16b-X 16dd-X	.	.	.	.	16eee	.	.
=257	=257	=257	=257	=257	=257	=257	=257	=257	=257	=257	=257	=257	=257	=257	=257	=257	=257	=257	=257	=257	=257	=257	=257	=257	=257	=257	=257	=257	=257	=257	=257	=257	=257	=257	=257
16AAA 16AA	???	16r	16r	16r	16r	16x	8AA	16r	16r	16r	16r	16r	16r	16AAA	ff	16AAA	ff	8r	.	8r	.	16AAA	ff	16AA	.	8r	16r	16r	16r	16r	16r	16r	16r	16r	8r
16r	.	16d-X	16cc-X	16b-X 16ff 16ccc	16b-X 16ff 16ccc	16r	.	16AA 16G	16C#X 16E 16A	16c	16d-X	16f 16b-X	16cc	16r	.	16r	.	.	.	.	.	16r	.	16r	.	.	16f	16b-X 16dd-X	16ff	16b-X	16dd 16bb-X	16ff 16bb-X	16ccc	16ccc	.
=258	=258	=258	=258	=258	=258	=258	=258	=258	=258	=258	=258	=258	=258	=258	=258	=258	=258	=258	=258	=258	=258	=258	=258	=258	=258	=258	=258	=258	=258	=258	=258	=258	=258	=258	=258
*M3/16	*	*M3/16	*M3/16	*M3/16	*M3/16	*M3/16	*M3/16	*M3/16	*M3/16	*M3/16	*M3/16	*M3/16	*M3/16	*M3/16	*	*M3/16	*	*M3/16	*	*M3/16	*	*M3/16	*	*M3/16	*	*M3/16	*M3/16	*M3/16	*M3/16	*M3/16	*M3/16	*M3/16	*M3/16	*M3/16	*M3/16
16r	.	16f	16ee	16dd-X 16bb-X 16eee	16dd-X 16bb-X 16eee	8.r	16r	16GG 16D-X	16BB-X 16D-X 16G	16e	16f	16b-X 16dd-X	16ee	8r	.	8r	.	8r	.	8.r	.	16r	.	8r	.	8.r	16b-X	16dd-X 16ff	16bb-X	16dd-X	16ff 16ddd-X	16bb-X 16ddd-X	16eee	16eee	8.r
16CC	f	16r	16r	16r	16r	.	16C	8r	8r	8r	16r	16r	8r	.	.	.	.	.	.	.	.	16CC	mf	.	.	.	16r	16r	8r	8r	16r	8r	8r	8r	.
16r	.	16FF#X 16C#X 16A#X	16f 16b-X	16e 16cc#X 16ee	16e 16cc#X 16ee	.	16r	.	.	.	16r	16r	.	16BBB-X	mf	16DD-X	mf	16G-X	mf	.	.	16r	.	16FF#X 16E	.	.	16r	16r	.	.	16r	.	.	.	.
=259	=259	=259	=259	=259	=259	=259	=259	=259	=259	=259	=259	=259	=259	=259	=259	=259	=259	=259	=259	=259	=259	=259	=259	=259	=259	=259	=259	=259	=259	=259	=259	=259	=259	=259	=259
16AAA^	.	16r	16r	16r	16r	16x	16AA	16r	16r	16r	16r	16r	16r	8.r	.	8.r	.	8.r	.	8.r	.	16AAA	f	16AA	f	16r	16r	16r	16r	16r	16r	16r	16r	16r	8.r
16r	.	16B-XLL	16gLL	16fLL 16dd-X 16gg	16fLL 16dd-X 16gg	16r	16r	16CLL 16B-X	16ELL 16G 16c	16GLL	16B-XLL	16d-XLL 16f	16gLL	.	.	.	.	.	.	.	.	16r	.	16r	.	16FLL	16b-XLL 16dd-X	16ccLL	16ddLL	16fLL	16b-XLL 16ff	16dd-XLL 16ff	16ggLL	16ggLL	.
16CC^	.	16d-XJJ	16ccJJ	16b-XJJ 16ff 16ccc	16b-XJJ 16ff 16ccc	16r	16C	16BB-XJJ 16E	16C#XJJ 16F#X 16A#X	16cJJ	16d-XJJ	16fJJ 16b-X	16ccJJ	.	.	.	.	.	.	.	.	16CC	.	16C	.	16FJJ	16b-JJ 16dd-	16ccJJ	16ggJJ	16b-XJJ	16dd-XJJ 16bb-X	16ffJJ 16bb-X	16cccJJ	16cccJJ	.
*	*	*	*	*	*	*	*	*	*	*	*	*	*	*clefG2	*	*clefG2	*	*	*	*	*	*	*	*	*	*	*	*	*	*	*	*	*	*	*
=260	=260	=260	=260	=260	=260	=260	=260	=260	=260	=260	=260	=260	=260	=260	=260	=260	=260	=260	=260	=260	=260	=260	=260	=260	=260	=260	=260	=260	=260	=260	=260	=260	=260	=260	=260
16r	.	16f	16ee	16dd-X 16bb-X 16eee	16dd-X 16bb-X 16eee	16r	16r	16AA 16G	16C#X 16E 16A#X	16e	16f	16b-X 16dd-X	16ee	8r	.	8r	.	8r	.	8r	.	16r	.	16r	.	16B-X	16dd-X 16ff	16ff	16bb--	16dd-X	16ff 16ddd-X	16bb-X 16ddd-X	16eee	16eee	8r
16AAA^	.	16r	16r	16r	16r	16x	16AA	16r	16r	16r	16r	16r	16r	.	.	.	.	.	.	.	.	16AAA	.	16AA	.	16r	16r	16r	16r	16r	16r	16r	16r	16r	.
.	.	.	.	.	.	.	.	.	.	.	.	.	.	.	.	.	.	.	.	.	.	.	.	.	.	.	.	.	.	.	.	.	.	.	(16qdddd-X/LL
.	.	.	.	.	.	.	.	.	.	.	.	.	.	.	.	.	.	.	.	.	.	.	.	.	.	.	.	.	.	.	.	.	.	.	16qeeee-X/
.	.	.	.	.	.	.	.	.	.	.	.	.	.	.	.	.	.	.	.	.	.	.	.	.	.	.	.	.	.	.	.	.	.	.	16qeeeen/JJ
16r	.	16dd-X	16ff	16bb-X 16ccc 16fff	16bb-X 16ccc 16fff	16r	16r	16GG 16D-X	16BB-X 16E-X 16G	16c	16b-X	16dd- 16ff	16cc	16B-X	.	16d-X	.	16f	.	16B-X 16f	.	16r	.	16r	.	16d-X	16ff 16bb-X	16aa-X	16ddd	16ff	16bb-X 16fff	16ddd- 16fff	16ccc	16ccc	16cccc) 16ffff
=261	=261	=261	=261	=261	=261	=261	=261	=261	=261	=261	=261	=261	=261	=261	=261	=261	=261	=261	=261	=261	=261	=261	=261	=261	=261	=261	=261	=261	=261	=261	=261	=261	=261	=261	=261
*M2/16	*	*M2/16	*M2/16	*M2/16	*M2/16	*M2/16	*M2/16	*M2/16	*M2/16	*M2/16	*M2/16	*M2/16	*M2/16	*M2/16	*	*M2/16	*	*M2/16	*	*M2/16	*	*M2/16	*	*M2/16	*	*M2/16	*M2/16	*M2/16	*M2/16	*M2/16	*M2/16	*M2/16	*M2/16	*M2/16	*M2/16
16CC^	.	16r	16r	16r	16r	16x	16C	8r	8r	8r	8r	8r	8r	16r	.	16r	.	16r	.	8r	.	16CC	.	16CLL	.	16r	16r	8r	8r	8r	8r	8r	16r	8r	8r
*	*	*	*	*	*	*	*	*	*	*	*	*	*	*clefF4	*	*clefF4	*	*	*	*	*	*	*	*	*	*	*	*	*	*	*	*	*	*	*
16r	.	16FF#X 16C#X 16A#X	16E 16c#X 16e	16e 16cc#X 16ee	16e 16cc#X 16ee	16r	16r	.	.	.	.	.	.	16BBB-X	.	16DD-X	.	16G-X	.	.	.	16r	.	16FF#XJJ 16E	.	16F	16b-X 16dd-X	.	.	.	.	.	16eee	.	.
=262	=262	=262	=262	=262	=262	=262	=262	=262	=262	=262	=262	=262	=262	=262	=262	=262	=262	=262	=262	=262	=262	=262	=262	=262	=262	=262	=262	=262	=262	=262	=262	=262	=262	=262	=262
!!pagebreak:original
*M3/16	*	*M3/16	*M3/16	*M3/16	*M3/16	*M3/16	*M3/16	*M3/16	*M3/16	*M3/16	*M3/16	*M3/16	*M3/16	*M3/16	*	*M3/16	*	*M3/16	*	*M3/16	*	*M3/16	*	*M3/16	*	*M3/16	*M3/16	*M3/16	*M3/16	*M3/16	*M3/16	*M3/16	*M3/16	*M3/16	*M3/16
16AAA^	.	16r	16r	16r	16r	16x	16AA	16r	16r	16r	16r	16r	16r	8.r	.	8.r	.	8.r	.	8.r	.	16AAA	.	16AA	.	16r	16r	16r	16r	16r	16r	16r	16r	16r	8.r
16r	.	16E-XLL	16FLL 16d-X 16g	16fLL 16dd-X 16gg	16fLL 16dd-X 16gg	16r	16r	16CLL 16B-X	16ELL 16G 16c	16GLL	16B-XLL	16d-XLL 16f	16gLL	.	.	.	.	.	.	.	.	16r	.	16r	.	16FLL	16b-XLL 16dd-X	16ccLL	16ddLL	16fLL	16b-XLL 16ff	16dd-XLL 16ff	16ggLL	16ggLL	.
16CC^	.	16G-XJJ	16B-XJJ 16f 16ccn	16b-XJJ 16ff 16ccc	16b-XJJ 16ff 16ccc	16x	16C	16BB-XJJ 16E	16C#XJJ 16F#X 16A#X	16cJJ	16d-XJJ	16fJJ 16b-X	16ccJJ	.	.	.	.	.	.	.	.	16CC	.	16C	.	16FJJ	16b-JJ 16dd-	16ccJJ	16ggJJ	16b-XJJ	16dd-XJJ 16bb-X	16ffJJ 16bb-X	16cccJJ	16cccJJ	.
*	*	*	*	*	*	*	*	*	*	*	*	*	*	*clefG2	*	*clefG2	*	*	*	*	*	*	*	*	*	*	*	*	*	*	*	*	*	*	*
=263	=263	=263	=263	=263	=263	=263	=263	=263	=263	=263	=263	=263	=263	=263	=263	=263	=263	=263	=263	=263	=263	=263	=263	=263	=263	=263	=263	=263	=263	=263	=263	=263	=263	=263	=263
16r	.	16B	16d-X 16b-X 16ee	16dd-X 16bb-X 16eee	16dd-X 16bb-X 16eee	16r	16r	16AA 16G	16C#X 16E 16A#X	16e	16f	16b-X 16dd-X	16ee	8r	.	8r	.	8r	.	8r	.	16r	.	16r	.	16B-X	16dd-X 16ff	16ff	16bb--	16dd-X	16ff 16ddd-X	16bb-X 16ddd-X	16eee	16eee	8r
16AAA^	.	16r	16r	16r	16r	16x	16AA	16r	16r	16r	16r	16r	16r	.	.	.	.	.	.	.	.	16AAA	.	16AA	.	16r	16r	16r	16r	16r	16r	16r	16r	16r	.
.	.	.	.	.	.	.	.	.	.	.	.	.	.	.	.	.	.	.	.	.	.	.	.	.	.	.	.	.	.	.	.	.	.	.	(16qdddd-X/LL
.	.	.	.	.	.	.	.	.	.	.	.	.	.	.	.	.	.	.	.	.	.	.	.	.	.	.	.	.	.	.	.	.	.	.	16qeeee-X/
.	.	.	.	.	.	.	.	.	.	.	.	.	.	.	.	.	.	.	.	.	.	.	.	.	.	.	.	.	.	.	.	.	.	.	16qeeeen/JJ
16r	.	16g-X	16b-X 16cc 16ff	16bb-X 16ccc 16fff	16bb-X 16ccc 16fff	16r	16r	16GG 16D-X	16BB-X 16E-X 16G	16c	16b-X	16dd- 16ff	16cc	16B-X	.	16d-X	.	16f	.	16B-X 16f	.	16r	.	16r	.	16d-X	16ff 16bb-X	16aa-X	16ddd	16ff	16bb-X 16fff	16ddd- 16fff	16ccc	16ccc	16cccc) 16ffff
=264	=264	=264	=264	=264	=264	=264	=264	=264	=264	=264	=264	=264	=264	=264	=264	=264	=264	=264	=264	=264	=264	=264	=264	=264	=264	=264	=264	=264	=264	=264	=264	=264	=264	=264	=264
16CC^	.	16r	16r	16r	16r	16x	16C	16r	16r	16r	16r	16r	16r	8.r	.	8.r	.	8.r	.	8.r	.	16CC	.	16C	.	16r	16r	16r	16r	16r	16r	16r	16r	16r	8.r
16r	.	16E-XLL	16FLL 16d-X 16g	16fLL 16dd-X 16gg	16fLL 16dd-X 16gg	16r	16r	16CLL 16B-X	16ELL 16G 16c	16GLL	16B-XLL	16d-XLL 16f	16gLL	.	.	.	.	.	.	.	.	16r	.	16r	.	16FLL	16b-XLL 16dd-X	16ccLL	16ddLL	16fLL	16b-XLL 16ff	16dd-XLL 16ff	16ggLL	16ggLL	.
16AAA^	.	16G-XJJ	16B-XJJ 16f 16cc	16b-XJJ 16ff 16ccc	16b-XJJ 16ff 16ccc	16x	16AA	16BB-XJJ 16E	16C#XJJ 16F#X 16A#X	16cJJ	16d-XJJ	16fJJ 16b-X	16ccJJ	.	.	.	.	.	.	.	.	16AAA	.	16AA	.	16FJJ	16b-JJ 16dd-	16ccJJ	16ggJJ	16b-XJJ	16dd-XJJ 16bb-X	16ffJJ 16bb-X	16cccJJ	16cccJJ	.
=265	=265	=265	=265	=265	=265	=265	=265	=265	=265	=265	=265	=265	=265	=265	=265	=265	=265	=265	=265	=265	=265	=265	=265	=265	=265	=265	=265	=265	=265	=265	=265	=265	=265	=265	=265
16r	.	16B	16d-X 16b-X 16ee	16dd-X 16bb-X 16eee	16dd-X 16bb-X 16eee	16r	16r	16AA 16G	16C#X 16E 16A#X	16e	16f	16b-X 16dd-X	16ee	8r	.	8r	.	8r	.	8r	.	16r	.	16r	.	16B-X	16dd-X 16ff	16ff	16bb--	16dd-X	16ff 16ddd-X	16bb-X 16ddd-X	16eee	16eee	8r
16CC^	.	16r	16r	16r	16r	16x	16C	16r	16r	16r	16r	16r	16r	.	.	.	.	.	.	.	.	16CC	.	16C	.	16r	16r	16r	16r	16r	16r	16r	16r	16r	.
.	.	.	.	.	.	.	.	.	.	.	.	.	.	.	.	.	.	.	.	.	.	.	.	.	.	.	.	.	.	.	.	.	.	.	(16qdddd-X/LL
.	.	.	.	.	.	.	.	.	.	.	.	.	.	.	.	.	.	.	.	.	.	.	.	.	.	.	.	.	.	.	.	.	.	.	16qeeee-X/
.	.	.	.	.	.	.	.	.	.	.	.	.	.	.	.	.	.	.	.	.	.	.	.	.	.	.	.	.	.	.	.	.	.	.	16qeeeen/JJ
16r	.	16g-X	16b-X 16cc 16ff	16bb-X 16ccc 16fff	16bb-X 16ccc 16fff	16r	16r	16GG 16D-X	16BB-X 16E-X 16G	16c	16b-X	16dd- 16ff	16cc	16B-X	.	16d-X	.	16f	.	16B-X 16f	.	16r	.	16r	.	16d-X	16ff 16bb-X	16aa-X	16ddd	16ff	16bb-X 16fff	16ddd- 16fff	16ccc	16ccc	16cccc) 16ffff
=266	=266	=266	=266	=266	=266	=266	=266	=266	=266	=266	=266	=266	=266	=266	=266	=266	=266	=266	=266	=266	=266	=266	=266	=266	=266	=266	=266	=266	=266	=266	=266	=266	=266	=266	=266
*M2/16	*	*M2/16	*M2/16	*M2/16	*M2/16	*M2/16	*M2/16	*M2/16	*M2/16	*M2/16	*M2/16	*M2/16	*M2/16	*M2/16	*	*M2/16	*	*M2/16	*	*M2/16	*	*M2/16	*	*M2/16	*	*M2/16	*M2/16	*M2/16	*M2/16	*M2/16	*M2/16	*M2/16	*M2/16	*M2/16	*M2/16
16AAA^	.	16r	16r	16r	16r	16x	16AA	8r	8r	8r	8r	8r	8r	16r	.	16r	.	16r	.	8r	.	16AAA	.	16AALL	.	16r	16r	8r	8r	8r	8r	8r	16r	8r	8r
*	*	*	*	*	*	*	*	*	*	*	*	*	*	*clefF4	*	*clefF4	*	*	*	*	*	*	*	*	*	*	*	*	*	*	*	*	*	*	*
16r	.	16FF#X 16C#X 16A#X	16E 16c#X 16e	16e 16cc#X 16ee	16e 16cc#X 16ee	16r	16r	.	.	.	.	.	.	16BBB-X	.	16DD-X	.	16G-X	.	.	.	16r	.	16FF#XJJ 16E	.	16f	16b-X 16dd-X	.	.	.	.	.	16eee	.	.
=267	=267	=267	=267	=267	=267	=267	=267	=267	=267	=267	=267	=267	=267	=267	=267	=267	=267	=267	=267	=267	=267	=267	=267	=267	=267	=267	=267	=267	=267	=267	=267	=267	=267	=267	=267
*M3/16	*	*M3/16	*M3/16	*M3/16	*M3/16	*M3/16	*M3/16	*M3/16	*M3/16	*M3/16	*M3/16	*M3/16	*M3/16	*M3/16	*	*M3/16	*	*M3/16	*	*M3/16	*	*M3/16	*	*M3/16	*	*M3/16	*M3/16	*M3/16	*M3/16	*M3/16	*M3/16	*M3/16	*M3/16	*M3/16	*M3/16
16CC^	.	16r	16r	16r	16r	16x	16C	16r	16r	16r	16r	16r	16r	8.r	.	8.r	.	8.r	.	8.r	.	16CC	.	16C	.	16r	16r	16r	16r	16r	16r	16r	16r	16r	8.r
16r	.	16E-XLL	16FLL 16d-X 16g	16fLL 16dd-X 16gg	16fLL 16dd-X 16gg	16r	16r	16CLL 16B-X	16ELL 16G 16c	16GLL	16B-XLL	16d-XLL 16f	16gLL	.	.	.	.	.	.	.	.	16r	.	16r	.	16fLL	16b-XLL 16dd-X	16ccLL	16ddLL	16fLL	16b-XLL 16ff	16dd-XLL 16ff	16ggLL	16ggLL	.
16AAA^	.	16G-XJJ	16B-XJJ 16f 16ccn	16b-XJJ 16ff 16ccc	16b-XJJ 16ff 16ccc	16x	16AA	16BB-XJJ 16E	16C#XJJ 16F#X 16A#X	16cJJ	16d-XJJ	16fJJ 16b-X	16ccJJ	.	.	.	.	.	.	.	.	16AAA	.	16AA	.	16fJJ	16b-JJ 16dd-	16ccJJ	16ggJJ	16b-XJJ	16dd-XJJ 16bb-X	16ffJJ 16bb-X	16cccJJ	16cccJJ	.
*	*	*	*	*	*	*	*	*	*	*	*	*	*	*clefG2	*	*clefG2	*	*	*	*	*	*	*	*	*	*	*	*	*	*	*	*	*	*	*
==	==	==	==	==	==	==	==	==	==	==	==	==	==	==	==	==	==	==	==	==	==	==	==	==	==	==	==	==	==	==	==	==	==	==	==
*-	*-	*-	*-	*-	*-	*-	*-	*-	*-	*-	*-	*-	*-	*-	*-	*-	*-	*-	*-	*-	*-	*-	*-	*-	*-	*-	*-	*-	*-	*-	*-	*-	*-	*-	*-
!!!CDT: 1882/06/17-1971/04/06
!!!CBL: Lomonosov (Oranienbaum), Russia
!!!CDL: New York, United States
!!!CNT: Russian, French, American
!!!AGN: Stage; Ballet
!!!MCN: Monteux, Pierre
!!!MDT: 1913/05/29
!!!MGN: Ballets Russes
!!!MLC: Paris, France
!!!MPD: 1913
!!!MPN:
!!!ODT: 1913 (rev. 1943)
!!!PDT: 1921
!!!excerpt-start-measure: 255
!!!excerpt-end-measure: 267
!!!excerpt-start-time: 4:09
!!!excerpt-end-time: 4:17
!!!EEV: 2020/01/17
!!!system-decoration: [(s1,s2,s3,s4,s5,s6,s7,s8,s9,s10,s11,s12)][(s13,s14,s15,s16,s17,s18,s19,s20,s21,s22)][(s23)]s24[(s25,s26,s27,s28,s29)]
!!!ONB: Converted from MusicXML on 2020/01/17
